X:1
T: The Priest and his Boots
C:
R:Jig
Q:180
K:D
M:6/8
L:1/16
|:cd|e4e2 e4e2|e2f2d2 c2B2A2|d2c2d2 f2e2d2|c2A2c2 e4cd|
e2f2e2 e2f2e2|e2f2d2 c2B2A2|d2c2d2 f2g2a2|1g2e2c2 d4cd:|2g2e2c2 d4fg|
a2f2a2 g2e2g2|f2d2f2 e2c2A2|d2c2d2 f2e2d2|c2A2c2 e4fg|
a4f2 g4e2|f4d2 e2c2A2|d2c2d2 f2g2a2|1g2e2c2 d4fg:|2g2e2c2 d4||
